svgs/sharp-light/file-chart-column.svg

<svg xmlns="http://www.w3.org/2000/svg" viewBox="0 0 384 512"><!--! Font Awesome Pro 6.6.0 by @fontawesome - https://fontawesome.com License - https://fontawesome.com/license (Commercial License) Copyright 2024 Fonticons, Inc. --><path d="M352 480L32 480 32 32l160 0 0 144 0 16 16 0 144 0 0 288zM224 37.3L346.7 160 224 160l0-122.7zM232 0L32 0 0 0 0 32 0 480l0 32 32 0 320 0 32 0 0-32 0-328L232 0zM208 240l0-16-32 0 0 16 0 192 0 16 32 0 0-16 0-192zm96 64l0-16-32 0 0 16 0 128 0 16 32 0 0-16 0-128zM112 368l0-16-32 0 0 16 0 64 0 16 32 0 0-16 0-64z"/></svg>

<svg xmlns="http://www.w3.org/2000/svg" viewBox="0 0 384 512"><!--! Font Awesome Pro 6.4.2 by @fontawesome - https://fontawesome.com License - https://fontawesome.com/license (Commercial License) Copyright 2023 Fonticons, Inc. --><path d="M352 480H32V32H192V176v16h16H352V480zM224 37.3L346.7 160H224V37.3zM232 0H32 0V32 480v32H32 352h32V480 152L232 0zM208 240V224H176v16V432v16h32V432 240zm96 64V288H272v16V432v16h32V432 304zM112 368V352H80v16 64 16h32V432 368z"/></svg>
